src/topics/icons/mandrill.svg

<svg height="227" preserveAspectRatio="xMidYMid" viewBox="0 0 256 227" width="256" xmlns="http://www.w3.org/2000/svg"><path d="m.8324265.4518607h254.8481925v225.6417123h-254.8481925z" fill="#e6e6e1"/><path d="m255.680619.4518607h-254.8481925l127.4314615 186.2391833z" fill="#d8d8d3"/><path d="m101.299301 226.093573h53.926227l-26.96164-39.402529z" fill="#b4b6b4"/><path d="m128.302186 118.827369-54.3622335-79.7890168v68.4911698l31.0418275 45.594986 23.267378-34.229382z" fill="#1a1918"/><path d="m128.302186 118.827369 23.411731 34.370789 30.844446-45.097115v-69.0626908z" fill="#ed9d4a"/><path d="m128.249158 118.895126-23.267378 34.229382 23.343974 34.273572 23.388163-34.199922-23.411731-34.370789z" fill="#bb7731"/><path d="m35.332839 187.489406h38.6071135v-79.959884l-38.6071135-56.6689381z" fill="#4cb2d4"/><path d="m35.332839 39.0383522v11.8222317l38.6071135 56.6689381v-68.4911698z" fill="#1b82ad"/><path d="m182.558363 108.101043v79.388363h38.592384v-135.8068927z" fill="#c02439"/><path d="m221.150747 39.0383522h-38.592384v69.0626908l38.592384-56.4185297z" fill="#8f202f"/></svg>

<?xml version="1.0" encoding="UTF-8" standalone="no"?>
<svg width="256px" height="227px" viewBox="0 0 256 227" version="1.1" xmlns="http://www.w3.org/2000/svg" xmlns:xlink="http://www.w3.org/1999/xlink" preserveAspectRatio="xMidYMid">
	<g>
		<path d="M0.832426495,0.4518607 L255.680619,0.4518607 L255.680619,226.093573 L0.832426495,226.093573 L0.832426495,0.4518607 L0.832426495,0.4518607 Z" fill="#E6E6E1"></path>
		<path d="M255.680619,0.4518607 L0.832426495,0.4518607 L128.263888,186.691044 L255.680619,0.4518607" fill="#D8D8D3"></path>
		<path d="M101.299301,226.093573 L155.225528,226.093573 L128.263888,186.691044 L101.299301,226.093573" fill="#B4B6B4"></path>
		<path d="M128.302186,118.827369 L73.9399525,39.0383522 L73.9399525,107.529522 L104.98178,153.124508 L128.249158,118.895126 L128.302186,118.827369" fill="#1A1918"></path>
		<path d="M128.302186,118.827369 L151.713917,153.198158 L182.558363,108.101043 L182.558363,39.0383522 L128.302186,118.827369" fill="#ED9D4A"></path>
		<path d="M128.249158,118.895126 L104.98178,153.124508 L128.325754,187.39808 L151.713917,153.198158 L128.302186,118.827369 L128.249158,118.895126" fill="#BB7731"></path>
		<path d="M35.332839,187.489406 L73.9399525,187.489406 L73.9399525,107.529522 L35.332839,50.8605839 L35.332839,187.489406" fill="#4CB2D4"></path>
		<path d="M35.332839,39.0383522 L35.332839,50.8605839 L73.9399525,107.529522 L73.9399525,39.0383522 L35.332839,39.0383522" fill="#1B82AD"></path>
		<path d="M182.558363,108.101043 L182.558363,187.489406 L221.150747,187.489406 L221.150747,51.6825133 L182.558363,108.101043" fill="#C02439"></path>
		<path d="M221.150747,39.0383522 L182.558363,39.0383522 L182.558363,108.101043 L221.150747,51.6825133 L221.150747,39.0383522" fill="#8F202F"></path>
	</g>
</svg>
